assets/img/donate/donorbox.svg

<svg fill="none" height="200" viewBox="0 0 600 200" width="600" xmlns="http://www.w3.org/2000/svg"><path d="m0 0h600v200h-600z" fill="#fff"/><path d="m0 0h600v200h-600z" fill="#137ec8"/><path d="m157.809 155.046h-102.5211c-2.9137 0-5.2879-2.374-5.2879-5.288v-100.4701c0-2.9137 2.3742-5.2879 5.2879-5.2879h51.2601c2.914 0 5.288 2.3742 5.288 5.2879v15.4861c0 2.9137-2.374 5.2879-5.288 5.2879-2.913 0-5.288-2.3742-5.288-5.2879v-10.0902h-40.5763v89.6782h91.7293v-89.6782h-13.058c-2.914 0-5.288-2.3742-5.288-5.288 0-2.9137 2.374-5.2879 5.288-5.2879h18.454c2.914 0 5.288 2.3742 5.288 5.2879v100.3622c0 2.914-2.374 5.288-5.288 5.288z" fill="#fff"/><path d="m96.4766 81.0176c-6.0973 0-11.0615 4.9641-11.0615 11.0614 0 12.464 12.5723 15.702 21.0979 28.004 8.202-12.194 21.152-16.025 21.152-28.004 0-6.0973-4.965-11.0614-11.062-11.0614-4.425 0-8.202 2.6439-9.982 6.3671-1.835-3.8311-5.612-6.3671-10.1444-6.3671z" fill="#f65a5b"/><path d="m106.567 120.677c-.162 0-.432-.108-.54-.27-3.291-4.694-7.1762-8.04-10.5216-11.061-5.7196-5.018-10.6838-9.389-10.6838-17.3209 0-6.475 5.2879-11.7629 11.7629-11.7629 4.0465 0 7.8775 2.2123 9.9825 5.6656 2.104-3.4533 5.935-5.6656 9.982-5.6656 6.475 0 11.763 5.2879 11.763 11.7629 0 7.6081-4.964 11.9249-10.576 16.9429-3.507 3.076-7.5 6.637-10.576 11.331-.162.324-.431.378-.593.378zm-10.0904-39.0658c-5.7196 0-10.414 4.6943-10.414 10.4139 0 7.3384 4.5325 11.3309 10.1442 16.2419 3.2915 2.913 6.9602 6.097 10.1442 10.521 3.076-4.532 6.907-7.877 10.252-10.791 5.504-4.856 10.144-9.0113 10.144-15.9719 0-5.7196-4.694-10.4139-10.414-10.4139-3.993 0-7.662 2.3741-9.442 5.9893-.108.2698-.378.3777-.594.3777-.27 0-.54-.1618-.594-.3777-1.402-3.5612-5.126-5.9893-9.2264-5.9893z" fill="#f65a5b"/><path d="m282.066 97.7c0 5-.867 9.567-2.6 13.7-1.734 4.067-4.167 7.567-7.3 10.5-3.067 2.867-6.8 5.1-11.2 6.7-4.334 1.6-9.1 2.4-14.3 2.4h-18.3c-2.2 0-4.1-.767-5.7-2.3-1.534-1.6-2.3-3.5-2.3-5.7v-50.7c0-2.2.766-4.0667 2.3-5.6 1.6-1.6 3.5-2.4 5.7-2.4h18.3c5.2 0 9.966.8 14.3 2.4 4.4 1.6 8.133 3.8667 11.2 6.8 3.133 2.8667 5.566 6.3667 7.3 10.5 1.733 4.1333 2.6 8.7 2.6 13.7zm-14.5 0c0-2.9333-.467-5.6667-1.4-8.2-.867-2.6-2.167-4.8333-3.9-6.7-1.734-1.8667-3.934-3.3333-6.6-4.4-2.6-1.0667-5.6-1.6-9-1.6h-12.1v41.7h12.1c3.266 0 6.2-.533 8.8-1.6 2.6-1.133 4.8-2.633 6.6-4.5 1.8-1.933 3.166-4.167 4.1-6.7.933-2.533 1.4-5.2 1.4-8zm72.277 9.1c0 3.467-.6 6.733-1.8 9.8-1.133 3.067-2.8 5.767-5 8.1-2.2 2.267-4.9 4.1-8.1 5.5-3.133 1.333-6.7 2-10.7 2s-7.567-.667-10.7-2c-3.133-1.4-5.8-3.233-8-5.5-2.2-2.333-3.9-5.033-5.1-8.1-1.133-3.067-1.7-6.333-1.7-9.8 0-3.4.567-6.633 1.7-9.7 1.2-3.0667 2.9-5.7333 5.1-8 2.2-2.3333 4.867-4.1667 8-5.5 3.133-1.4 6.7-2.1 10.7-2.1s7.567.7 10.7 2.1c3.2 1.3333 5.9 3.1667 8.1 5.5 2.2 2.2667 3.867 4.9333 5 8 1.2 3.067 1.8 6.3 1.8 9.7zm-13.2 0c0-1.867-.3-3.633-.9-5.3-.533-1.7333-1.333-3.2333-2.4-4.5-1-1.2667-2.267-2.2667-3.8-3-1.533-.8-3.3-1.2-5.3-1.2s-3.767.4-5.3 1.2c-1.467.7333-2.733 1.7333-3.8 3s-1.867 2.7667-2.4 4.5c-.533 1.667-.8 3.433-.8 5.3 0 1.933.267 3.767.8 5.5.533 1.667 1.333 3.133 2.4 4.4s2.333 2.3 3.8 3.1c1.533.733 3.3 1.1 5.3 1.1s3.767-.367 5.3-1.1c1.533-.8 2.8-1.833 3.8-3.1 1.067-1.267 1.867-2.733 2.4-4.4.6-1.733.9-3.567.9-5.5zm67.922 18.5c0 1.733-.633 3.233-1.9 4.5-1.2 1.2-2.7 1.8-4.5 1.8-1.733 0-3.233-.6-4.5-1.8-1.2-1.267-1.8-2.767-1.8-4.5v-23.5c0-3.4-.8-5.7333-2.4-7-1.6-1.3333-3.767-2-6.5-2-1.267 0-2.467.1667-3.6.5-1.067.3333-2.067.7667-3 1.3s-1.767 1.1333-2.5 1.8-1.367 1.3667-1.9 2.1v26.8c0 1.733-.633 3.233-1.9 4.5-1.2 1.2-2.7 1.8-4.5 1.8-1.733 0-3.233-.6-4.5-1.8-1.2-1.267-1.8-2.767-1.8-4.5v-37c0-1.7333.6-3.2 1.8-4.4 1.267-1.2 2.833-1.8 4.7-1.8 1.733 0 3.2.6 4.4 1.8s1.8 2.6667 1.8 4.4v.7c.8-.9333 1.733-1.8333 2.8-2.7 1.133-.9333 2.4-1.7333 3.8-2.4 1.467-.7333 3.033-1.3 4.7-1.7 1.733-.4667 3.6-.7 5.6-.7 5.333 0 9.267 1.4 11.8 4.2 2.6 2.7333 3.9 6.4667 3.9 11.2zm54.31 0c0 1.733-.6 3.233-1.8 4.5-1.2 1.2-2.667 1.8-4.4 1.8 0 0-.167 0-.5 0s-.5 0-.5 0c-1.533 0-2.833-.533-3.9-1.6-1.067-1.133-1.6-2.467-1.6-4-1.667 1.933-3.833 3.467-6.5 4.6-2.667 1.067-5.6 1.6-8.8 1.6-1.933 0-3.9-.333-5.9-1s-3.8-1.633-5.4-2.9c-1.6-1.333-2.933-3-4-5-1-2-1.5-4.367-1.5-7.1 0-2.8.5-5.2 1.5-7.2 1.067-2 2.4-3.6 4-4.8 1.6-1.267 3.4-2.167 5.4-2.7 2-.6 3.967-.9 5.9-.9 3.2 0 6.133.5 8.8 1.5 2.733 1 4.9 2.467 6.5 4.4v-6.5c0-2.4667-.967-4.4333-2.9-5.9s-4.5-2.2-7.7-2.2c-1.933 0-3.8.2333-5.6.7s-3.533 1.2667-5.2 2.4c-.8.4667-1.567.7-2.3.7-1.133 0-2.233-.4333-3.3-1.3-1-.8667-1.5-2.0667-1.5-3.6 0-.8667.233-1.7.7-2.5.733-1.2 1.9-2.2333 3.5-3.1s3.333-1.5667 5.2-2.1c1.933-.5333 3.833-.9333 5.7-1.2 1.933-.2667 3.6-.4 5-.4 2.733 0 5.367.3 7.9.9s4.767 1.6333 6.7 3.1c2 1.4 3.567 3.2667 4.7 5.6 1.2 2.3333 1.8 5.2333 1.8 8.7zm-12.7-5.9v-6c-1.067-1.4-2.533-2.433-4.4-3.1-1.8-.733-3.733-1.1-5.8-1.1-2.533 0-4.7.633-6.5 1.9-1.733 1.267-2.6 3.067-2.6 5.4 0 2.267.867 4.033 2.6 5.3 1.8 1.2 3.967 1.8 6.5 1.8 2.067 0 4-.333 5.8-1 1.867-.733 3.333-1.8 4.4-3.2zm51.697 7c0 .8-.167 1.567-.5 2.3-.267.667-.767 1.267-1.5 1.8s-1.767.933-3.1 1.2c-1.333.333-3.033.5-5.1.5-4.467 0-7.867-1.1-10.2-3.3-2.333-2.267-3.5-5.567-3.5-9.9v-25.2h-3.1c-1.533 0-2.833-.5333-3.9-1.6-1.067-1.1333-1.6-2.5-1.6-4.1 0-1.4667.533-2.7333 1.6-3.8s2.367-1.6 3.9-1.6h3.1v-7.5c0-1.7333.6-3.2 1.8-4.4 1.267-1.2667 2.833-1.9 4.7-1.9 1.733 0 3.2.6333 4.4 1.9 1.267 1.2 1.9 2.6667 1.9 4.4v7.5h5c1.467 0 2.733.5667 3.8 1.7 1.067 1.0667 1.6 2.3667 1.6 3.9s-.533 2.8333-1.6 3.9-2.333 1.6-3.8 1.6h-5v21.8c0 1.933.467 3.3 1.4 4.1 1 .8 2 1.2 3 1.2h.5.6c1.8 0 3.167.533 4.1 1.6 1 1.067 1.5 2.367 1.5 3.9zm53.289-21.3c0 1.533-.567 2.9-1.7 4.1-1.133 1.133-2.533 1.7-4.2 1.7h-29.8c.2 1.533.633 3 1.3 4.4.733 1.333 1.667 2.5 2.8 3.5 1.2 1 2.6 1.8 4.2 2.4 1.667.6 3.533.9 5.6.9 1.333 0 2.833-.2 4.5-.6 1.733-.4 3.367-1 4.9-1.8.8-.4 1.633-.6 2.5-.6 1.333 0 2.567.467 3.7 1.4s1.7 2.167 1.7 3.7c0 1.667-.733 2.933-2.2 3.8-2.4 1.467-5.033 2.533-7.9 3.2-2.8.667-5.667 1-8.6 1-3.667 0-7.1-.6-10.3-1.8-3.133-1.2-5.867-2.9-8.2-5.1-2.267-2.2-4.067-4.867-5.4-8-1.267-3.133-1.9-6.633-1.9-10.5 0-3.467.6-6.733 1.8-9.8 1.267-3.1333 3-5.8333 5.2-8.1s4.833-4.0667 7.9-5.4 6.433-2 10.1-2c2.733 0 5.267.4 7.6 1.2 2.4.7333 4.567 1.8 6.5 3.2s3.6 3.1333 5 5.2c1.467 2 2.633 4.2333 3.5 6.7.333 1.1333.633 2.333.9 3.6.333 1.267.5 2.5.5 3.7zm-12.1-2.8c-.067-1.133-.333-2.3333-.8-3.6s-1.167-2.4-2.1-3.4c-.933-1.0667-2.167-1.9333-3.7-2.6-1.467-.7333-3.233-1.1-5.3-1.1-2 0-3.733.3333-5.2 1-1.4.6667-2.567 1.5333-3.5 2.6-.933 1-1.667 2.1333-2.2 3.4s-.867 2.5-1 3.7z" fill="#fff"/></svg>

<svg width="600" height="200" viewBox="0 0 600 200" fill="none" xmlns="http://www.w3.org/2000/svg">
<rect width="600" height="200" fill="white"/>
<rect width="600" height="200" fill="#137EC8"/>
<path d="M157.809 155.046H55.2879C52.3742 155.046 50 152.672 50 149.758V49.2879C50 46.3742 52.3742 44 55.2879 44H106.548C109.462 44 111.836 46.3742 111.836 49.2879V64.774C111.836 67.6877 109.462 70.0619 106.548 70.0619C103.635 70.0619 101.26 67.6877 101.26 64.774V54.6838H60.6837V144.362H152.413V54.6838H139.355C136.441 54.6838 134.067 52.3096 134.067 49.3958C134.067 46.4821 136.441 44.1079 139.355 44.1079H157.809C160.723 44.1079 163.097 46.4821 163.097 49.3958V149.758C163.097 152.672 160.723 155.046 157.809 155.046Z" fill="white"/>
<path d="M96.4766 81.0176C90.3793 81.0176 85.4151 85.9817 85.4151 92.079C85.4151 104.543 97.9874 107.781 106.513 120.083C114.715 107.889 127.665 104.058 127.665 92.079C127.665 85.9817 122.7 81.0176 116.603 81.0176C112.178 81.0176 108.401 83.6615 106.621 87.3847C104.786 83.5536 101.009 81.0176 96.4766 81.0176Z" fill="#F65A5B"/>
<path d="M106.567 120.677C106.405 120.677 106.135 120.569 106.027 120.407C102.736 115.713 98.8508 112.367 95.5054 109.346C89.7858 104.328 84.8216 99.957 84.8216 92.0251C84.8216 85.5501 90.1095 80.2622 96.5845 80.2622C100.631 80.2622 104.462 82.4745 106.567 85.9278C108.671 82.4745 112.502 80.2622 116.549 80.2622C123.024 80.2622 128.312 85.5501 128.312 92.0251C128.312 99.6332 123.348 103.95 117.736 108.968C114.229 112.044 110.236 115.605 107.16 120.299C106.998 120.623 106.729 120.677 106.567 120.677ZM96.4766 81.6112C90.757 81.6112 86.0626 86.3055 86.0626 92.0251C86.0626 99.3635 90.5951 103.356 96.2068 108.267C99.4983 111.18 103.167 114.364 106.351 118.788C109.427 114.256 113.258 110.911 116.603 107.997C122.107 103.141 126.747 98.9857 126.747 92.0251C126.747 86.3055 122.053 81.6112 116.333 81.6112C112.34 81.6112 108.671 83.9853 106.891 87.6005C106.783 87.8703 106.513 87.9782 106.297 87.9782C106.027 87.9782 105.757 87.8164 105.703 87.6005C104.301 84.0393 100.577 81.6112 96.4766 81.6112Z" fill="#F65A5B"/>
<path d="M282.066 97.7C282.066 102.7 281.199 107.267 279.466 111.4C277.732 115.467 275.299 118.967 272.166 121.9C269.099 124.767 265.366 127 260.966 128.6C256.632 130.2 251.866 131 246.666 131H228.366C226.166 131 224.266 130.233 222.666 128.7C221.132 127.1 220.366 125.2 220.366 123V72.3C220.366 70.1 221.132 68.2333 222.666 66.7C224.266 65.1 226.166 64.3 228.366 64.3H246.666C251.866 64.3 256.632 65.1 260.966 66.7C265.366 68.3 269.099 70.5667 272.166 73.5C275.299 76.3667 277.732 79.8667 279.466 84C281.199 88.1333 282.066 92.7 282.066 97.7ZM267.566 97.7C267.566 94.7667 267.099 92.0333 266.166 89.5C265.299 86.9 263.999 84.6667 262.266 82.8C260.532 80.9333 258.332 79.4667 255.666 78.4C253.066 77.3333 250.066 76.8 246.666 76.8H234.566V118.5H246.666C249.932 118.5 252.866 117.967 255.466 116.9C258.066 115.767 260.266 114.267 262.066 112.4C263.866 110.467 265.232 108.233 266.166 105.7C267.099 103.167 267.566 100.5 267.566 97.7ZM339.843 106.8C339.843 110.267 339.243 113.533 338.043 116.6C336.91 119.667 335.243 122.367 333.043 124.7C330.843 126.967 328.143 128.8 324.943 130.2C321.81 131.533 318.243 132.2 314.243 132.2C310.243 132.2 306.676 131.533 303.543 130.2C300.41 128.8 297.743 126.967 295.543 124.7C293.343 122.367 291.643 119.667 290.443 116.6C289.31 113.533 288.743 110.267 288.743 106.8C288.743 103.4 289.31 100.167 290.443 97.1C291.643 94.0333 293.343 91.3667 295.543 89.1C297.743 86.7667 300.41 84.9333 303.543 83.6C306.676 82.2 310.243 81.5 314.243 81.5C318.243 81.5 321.81 82.2 324.943 83.6C328.143 84.9333 330.843 86.7667 333.043 89.1C335.243 91.3667 336.91 94.0333 338.043 97.1C339.243 100.167 339.843 103.4 339.843 106.8ZM326.643 106.8C326.643 104.933 326.343 103.167 325.743 101.5C325.21 99.7667 324.41 98.2667 323.343 97C322.343 95.7333 321.076 94.7333 319.543 94C318.01 93.2 316.243 92.8 314.243 92.8C312.243 92.8 310.476 93.2 308.943 94C307.476 94.7333 306.21 95.7333 305.143 97C304.076 98.2667 303.276 99.7667 302.743 101.5C302.21 103.167 301.943 104.933 301.943 106.8C301.943 108.733 302.21 110.567 302.743 112.3C303.276 113.967 304.076 115.433 305.143 116.7C306.21 117.967 307.476 119 308.943 119.8C310.476 120.533 312.243 120.9 314.243 120.9C316.243 120.9 318.01 120.533 319.543 119.8C321.076 119 322.343 117.967 323.343 116.7C324.41 115.433 325.21 113.967 325.743 112.3C326.343 110.567 326.643 108.733 326.643 106.8ZM394.565 125.3C394.565 127.033 393.932 128.533 392.665 129.8C391.465 131 389.965 131.6 388.165 131.6C386.432 131.6 384.932 131 383.665 129.8C382.465 128.533 381.865 127.033 381.865 125.3V101.8C381.865 98.4 381.065 96.0667 379.465 94.8C377.865 93.4667 375.698 92.8 372.965 92.8C371.698 92.8 370.498 92.9667 369.365 93.3C368.298 93.6333 367.298 94.0667 366.365 94.6C365.432 95.1333 364.598 95.7333 363.865 96.4C363.132 97.0667 362.498 97.7667 361.965 98.5V125.3C361.965 127.033 361.332 128.533 360.065 129.8C358.865 131 357.365 131.6 355.565 131.6C353.832 131.6 352.332 131 351.065 129.8C349.865 128.533 349.265 127.033 349.265 125.3V88.3C349.265 86.5667 349.865 85.1 351.065 83.9C352.332 82.7 353.898 82.1 355.765 82.1C357.498 82.1 358.965 82.7 360.165 83.9C361.365 85.1 361.965 86.5667 361.965 88.3V89C362.765 88.0667 363.698 87.1667 364.765 86.3C365.898 85.3667 367.165 84.5667 368.565 83.9C370.032 83.1667 371.598 82.6 373.265 82.2C374.998 81.7333 376.865 81.5 378.865 81.5C384.198 81.5 388.132 82.9 390.665 85.7C393.265 88.4333 394.565 92.1667 394.565 96.9V125.3ZM448.875 125.3C448.875 127.033 448.275 128.533 447.075 129.8C445.875 131 444.408 131.6 442.675 131.6C442.675 131.6 442.508 131.6 442.175 131.6C441.842 131.6 441.675 131.6 441.675 131.6C440.142 131.6 438.842 131.067 437.775 130C436.708 128.867 436.175 127.533 436.175 126C434.508 127.933 432.342 129.467 429.675 130.6C427.008 131.667 424.075 132.2 420.875 132.2C418.942 132.2 416.975 131.867 414.975 131.2C412.975 130.533 411.175 129.567 409.575 128.3C407.975 126.967 406.642 125.3 405.575 123.3C404.575 121.3 404.075 118.933 404.075 116.2C404.075 113.4 404.575 111 405.575 109C406.642 107 407.975 105.4 409.575 104.2C411.175 102.933 412.975 102.033 414.975 101.5C416.975 100.9 418.942 100.6 420.875 100.6C424.075 100.6 427.008 101.1 429.675 102.1C432.408 103.1 434.575 104.567 436.175 106.5V100C436.175 97.5333 435.208 95.5667 433.275 94.1C431.342 92.6333 428.775 91.9 425.575 91.9C423.642 91.9 421.775 92.1333 419.975 92.6C418.175 93.0667 416.442 93.8667 414.775 95C413.975 95.4667 413.208 95.7 412.475 95.7C411.342 95.7 410.242 95.2667 409.175 94.4C408.175 93.5333 407.675 92.3333 407.675 90.8C407.675 89.9333 407.908 89.1 408.375 88.3C409.108 87.1 410.275 86.0667 411.875 85.2C413.475 84.3333 415.208 83.6333 417.075 83.1C419.008 82.5667 420.908 82.1667 422.775 81.9C424.708 81.6333 426.375 81.5 427.775 81.5C430.508 81.5 433.142 81.8 435.675 82.4C438.208 83 440.442 84.0333 442.375 85.5C444.375 86.9 445.942 88.7667 447.075 91.1C448.275 93.4333 448.875 96.3333 448.875 99.8V125.3ZM436.175 119.4V113.4C435.108 112 433.642 110.967 431.775 110.3C429.975 109.567 428.042 109.2 425.975 109.2C423.442 109.2 421.275 109.833 419.475 111.1C417.742 112.367 416.875 114.167 416.875 116.5C416.875 118.767 417.742 120.533 419.475 121.8C421.275 123 423.442 123.6 425.975 123.6C428.042 123.6 429.975 123.267 431.775 122.6C433.642 121.867 435.108 120.8 436.175 119.4ZM487.872 126.4C487.872 127.2 487.705 127.967 487.372 128.7C487.105 129.367 486.605 129.967 485.872 130.5C485.139 131.033 484.105 131.433 482.772 131.7C481.439 132.033 479.739 132.2 477.672 132.2C473.205 132.2 469.805 131.1 467.472 128.9C465.139 126.633 463.972 123.333 463.972 119V93.8H460.872C459.339 93.8 458.039 93.2667 456.972 92.2C455.905 91.0667 455.372 89.7 455.372 88.1C455.372 86.6333 455.905 85.3667 456.972 84.3C458.039 83.2333 459.339 82.7 460.872 82.7H463.972V75.2C463.972 73.4667 464.572 72 465.772 70.8C467.039 69.5333 468.605 68.9 470.472 68.9C472.205 68.9 473.672 69.5333 474.872 70.8C476.139 72 476.772 73.4667 476.772 75.2V82.7H481.772C483.239 82.7 484.505 83.2667 485.572 84.4C486.639 85.4667 487.172 86.7667 487.172 88.3C487.172 89.8333 486.639 91.1333 485.572 92.2C484.505 93.2667 483.239 93.8 481.772 93.8H476.772V115.6C476.772 117.533 477.239 118.9 478.172 119.7C479.172 120.5 480.172 120.9 481.172 120.9C481.305 120.9 481.472 120.9 481.672 120.9C481.939 120.9 482.139 120.9 482.272 120.9C484.072 120.9 485.439 121.433 486.372 122.5C487.372 123.567 487.872 124.867 487.872 126.4ZM541.161 105.1C541.161 106.633 540.594 108 539.461 109.2C538.328 110.333 536.928 110.9 535.261 110.9H505.461C505.661 112.433 506.094 113.9 506.761 115.3C507.494 116.633 508.428 117.8 509.561 118.8C510.761 119.8 512.161 120.6 513.761 121.2C515.428 121.8 517.294 122.1 519.361 122.1C520.694 122.1 522.194 121.9 523.861 121.5C525.594 121.1 527.228 120.5 528.761 119.7C529.561 119.3 530.394 119.1 531.261 119.1C532.594 119.1 533.828 119.567 534.961 120.5C536.094 121.433 536.661 122.667 536.661 124.2C536.661 125.867 535.928 127.133 534.461 128C532.061 129.467 529.428 130.533 526.561 131.2C523.761 131.867 520.894 132.2 517.961 132.2C514.294 132.2 510.861 131.6 507.661 130.4C504.528 129.2 501.794 127.5 499.461 125.3C497.194 123.1 495.394 120.433 494.061 117.3C492.794 114.167 492.161 110.667 492.161 106.8C492.161 103.333 492.761 100.067 493.961 97C495.228 93.8667 496.961 91.1667 499.161 88.9C501.361 86.6333 503.994 84.8333 507.061 83.5C510.128 82.1667 513.494 81.5 517.161 81.5C519.894 81.5 522.428 81.9 524.761 82.7C527.161 83.4333 529.328 84.5 531.261 85.9C533.194 87.3 534.861 89.0333 536.261 91.1C537.728 93.1 538.894 95.3333 539.761 97.8C540.094 98.9333 540.394 100.133 540.661 101.4C540.994 102.667 541.161 103.9 541.161 105.1ZM529.061 102.3C528.994 101.167 528.728 99.9667 528.261 98.7C527.794 97.4333 527.094 96.3 526.161 95.3C525.228 94.2333 523.994 93.3667 522.461 92.7C520.994 91.9667 519.228 91.6 517.161 91.6C515.161 91.6 513.428 91.9333 511.961 92.6C510.561 93.2667 509.394 94.1333 508.461 95.2C507.528 96.2 506.794 97.3333 506.261 98.6C505.728 99.8667 505.394 101.1 505.261 102.3H529.061Z" fill="white"/>
</svg>
